!!!COM: Music21
!!!OTL: march_Burnbank-Cottage
!!!OMV: march_Burnbank-Cottage
**kern
*clefG2
*k[f#c#]
*D:
*M4/4
=1
8.gL
16bJk
=
2dd
4dd
8.aL
16ddJk
=
2ff#
4ff#
8.ddL
16eeJk
=
8.ff#L
16aaJk
8.aaL
16ff#Jk
8.ggL
16ff#Jk
8.eeL
16ddJk
=
8.cc#L
16ddJk
16eeKL
8.cc#J
4a
4ryy
=
8.gL
16bJk
4dd
4dd
4ryy
!!linebreak:original
=
8.aL
16ddJk
4ff#
4ff#
8.ddL
16eeJk
=
8.ff#L
16aaJk
8.aaL
16ff#Jk
8.ggL
16ff#Jk
16eeKL
8.ddJ
=
2dd
4dd
4ryy
=||
*M4/4
8.gL
16bJk
=
2dd
4dd
8.aL
16ddJk
=
2ff#
4ff#
8.ddL
16eeJk
!!linebreak:original
=
8.ff#L
16aaJk
8.aaL
16ff#Jk
8.ggL
16ff#Jk
8.eeL
16ddJk
=
8.cc#L
16ddJk
16eeKL
8.cc#J
4a
4ryy
=
8.gL
16bJk
4dd
4dd
4ryy
=
8.aL
16ddJk
4ff#
4ff#
8.ddL
16eeJk
=
8.ff#L
16aaJk
8.aaL
16ff#Jk
8.ggL
16ff#Jk
16eeKL
8.ddJ
!!linebreak:original
=
2dd
4dd
4ryy
=||
8.eeL
16ff#Jk
2.ryy
=
4.gg
8ff#
8.eeL
16ddJk
16bKL
8.ddJ
=
8.cc#L
16ddJk
16eeKL
8.cc#J
4aa
8.ddL
16eeJk
=
8.ff#L
16aaJk
8.aaL
16ff#Jk
8.ggL
16ff#Jk
8.eeL
16ddJk
=
8.cc#L
16ddJk
16eeKL
8.cc#J
4a
8.eeL
16ff#Jk
!!linebreak:original
=
4.gg
8ff#
8.eeL
16ddJk
16bKL
8.ddJ
=
8.cc#L
16ddJk
16eeKL
8.cc#J
4aa
8.ddL
16eeJk
=
8.ff#L
16aaJk
8.aaL
16ff#Jk
8.ggL
16ff#Jk
16eeKL
8.ddJ
=
2dd
4dd
8.eeL
16ff#Jk
=
4.gg
8ff#
8.eeL
16ddJk
16bKL
8.ddJ
!!linebreak:original
=
8.cc#L
16ddJk
16eeKL
8.cc#J
4aa
8.ddL
16eeJk
=
8.ff#L
16aaJk
8.aaL
16ff#Jk
8.ggL
16ff#Jk
8.eeL
16ddJk
=
8.cc#L
16ddJk
16eeKL
8.cc#J
4a
4ryy
=
8.gL
16bJk
4dd
4dd
4ryy
=
8.aL
16ddJk
4ff#
4ff#
8.ddL
16eeJk
!!linebreak:original
=
8.ff#L
16aaJk
8.aaL
16ff#Jk
8.ggL
16ff#Jk
16eeKL
8.ddJ
=
2dd
4dd
4ryy
=||
*-
